findly-builder/apps/searchassist/src/assets/icons/no-switch-user.svg

<svg width="14" height="14" viewBox="0 0 14 14" fill="none" xmlns="http://www.w3.org/2000/svg">
<path d="M7 0.5C3.41797 0.5 0.5 3.41797 0.5 7C0.5 10.582 3.41797 13.5 7 13.5C10.582 13.5 13.5 10.582 13.5 7C13.5 3.41797 10.582 0.5 7 0.5ZM7 1.5C10.043 1.5 12.5 3.95703 12.5 7C12.5 8.33984 12.0234 9.5625 11.2344 10.5156C10.8047 9.29688 9.875 8.31641 8.6875 7.83203C9.18359 7.375 9.5 6.72266 9.5 6C9.5 4.625 8.375 3.5 7 3.5C5.625 3.5 4.5 4.625 4.5 6C4.5 6.72266 4.81641 7.375 5.3125 7.83203C4.125 8.31641 3.19922 9.29688 2.76953 10.5156C1.97656 9.5625 1.5 8.33984 1.5 7C1.5 3.95703 3.95703 1.5 7 1.5ZM7 4.5C7.83594 4.5 8.5 5.16406 8.5 6C8.5 6.83594 7.83594 7.5 7 7.5C6.16406 7.5 5.5 6.83594 5.5 6C5.5 5.16406 6.16406 4.5 7 4.5ZM7 8.5C8.69922 8.5 10.0938 9.70703 10.418 11.3086C9.47656 12.0547 8.29297 12.5 7 12.5C5.70703 12.5 4.52344 12.0547 3.58594 11.3086C3.90625 9.70703 5.30078 8.5 7 8.5Z" fill="#9AA0A6"/>
</svg>

<svg width="14" height="14" fill="none" xmlns="http://www.w3.org/2000/svg"><path d="M7 .5A6.51 6.51 0 0 0 .5 7 6.51 6.51 0 0 0 7 13.5 6.51 6.51 0 0 0 13.5 7 6.51 6.51 0 0 0 7 .5Zm0 1c3.043 0 5.5 2.457 5.5 5.5a5.49 5.49 0 0 1-1.266 3.516 4.522 4.522 0 0 0-2.546-2.684A2.49 2.49 0 0 0 9.5 6c0-1.375-1.125-2.5-2.5-2.5A2.507 2.507 0 0 0 4.5 6c0 .723.316 1.375.813 1.832a4.516 4.516 0 0 0-2.543 2.684A5.472 5.472 0 0 1 1.5 7c0-3.043 2.457-5.5 5.5-5.5Zm0 3c.836 0 1.5.664 1.5 1.5S7.836 7.5 7 7.5A1.49 1.49 0 0 1 5.5 6c0-.836.664-1.5 1.5-1.5Zm0 4c1.7 0 3.094 1.207 3.418 2.809A5.477 5.477 0 0 1 7 12.5a5.457 5.457 0 0 1-3.414-1.191A3.48 3.48 0 0 1 7 8.5Z" fill="#9AA0A6"/></svg>
